X:2429
T:Hag's Purse, The
O:england
R:jig
D:De Danann 1
D:Moving Cloud
M:6/8
L:1/8
K:Dmix
A2D FED|A2B cAF|G2E EDE|c2d cAG|
A2D FED|A2B cAF|GEE cEE|DED D3:|
|:d2e =fed|e2d cAF|G2E EDE|c2d cAG|
d2e =fed|e2d cAF|GEE cEE|DED D3:|


